X: 35581
T: Ryans And The Pittmans
R: jig
M: 6/8
K: Gmajor
D|:G2G GAB|cAG FDD|A2A A2B|cBA dBc|
d2d BGB|cAG Fdc|BAB cAG|FEF G2 [1 D:|2 d||
|:BGd BGd|edB G2B|cdc BcB|AFD DBc|
d2d BGB|c2c AFA|BAB cAG|FEF G2 [1 d:|2 D||

